icons/circle/48/rsibreak.svg

<svg xmlns="http://www.w3.org/2000/svg" viewBox="0 0 48 48">
  <defs>
    <linearGradient id="a" x1="1" x2="47" gradientUnits="userSpaceOnUse" gradientTransform="rotate(-90 24 24)">
      <stop stop-color="#575757"/>
      <stop offset="1" stop-color="#616161"/>
    </linearGradient>
  </defs>
  <path d="M36.31 5c5.859 4.062 9.688 10.831 9.688 18.5 0 12.426-10.07 22.5-22.5 22.5-7.669 0-14.438-3.828-18.5-9.688a23.24 23.24 0 0 0 3.781 4.969 22.923 22.923 0 0 0 15.469 5.969c12.703 0 23-10.298 23-23a22.92 22.92 0 0 0-5.969-15.469A23.216 23.216 0 0 0 36.31 5zm4.969 3.781A22.911 22.911 0 0 1 47.498 24.5c0 12.703-10.297 23-23 23a22.909 22.909 0 0 1-15.719-6.219C12.939 45.425 18.662 48 24.998 48c12.703 0 23-10.298 23-23 0-6.335-2.575-12.06-6.719-16.219z" opacity=".05"/>
  <path d="M41.28 8.781a22.923 22.923 0 0 1 5.969 15.469c0 12.703-10.297 23-23 23A22.92 22.92 0 0 1 8.78 41.281 22.911 22.911 0 0 0 24.499 47.5c12.703 0 23-10.298 23-23A22.909 22.909 0 0 0 41.28 8.781z" opacity=".1"/>
  <path d="M31.25 2.375C39.865 5.529 46 13.792 46 23.505c0 12.426-10.07 22.5-22.5 22.5-9.708 0-17.971-6.135-21.12-14.75a23 23 0 0 0 44.875-7 23 23 0 0 0-16-21.875z" opacity=".2"/>
  <path d="M24 1c12.703 0 23 10.297 23 23S36.703 47 24 47 1 36.703 1 24 11.297 1 24 1z" fill="url(#a)"/>
  <path d="M40.03 7.531A22.922 22.922 0 0 1 45.999 23c0 12.703-10.297 23-23 23A22.92 22.92 0 0 1 7.53 40.031C11.708 44.322 17.54 47 23.999 47c12.703 0 23-10.298 23-23 0-6.462-2.677-12.291-6.969-16.469z" opacity=".1"/>
  <path d="M25 10a15 15 0 0 0-15 15 15 15 0 0 0 15 15 15 15 0 0 0 15-15 15 15 0 0 0-15-15m-.5 1h1c.277 0 .5.223.5.5v1c0 .277-.223.5-.5.5h-1c-.28 0-.5-.223-.5-.5v-1c0-.277.22-.5.5-.5m-5.879 1.563a.498.498 0 0 1 .494.246l.5.865a.5.5 0 0 1-.182.684l-.867.5a.498.498 0 0 1-.682-.184l-.5-.865a.5.5 0 0 1 .182-.684l.867-.5a.504.504 0 0 1 .188-.063zm12.758 0a.493.493 0 0 1 .188.063l.867.5a.5.5 0 0 1 .182.684l-.5.865a.498.498 0 0 1-.682.184l-.867-.5a.5.5 0 0 1-.182-.684l.5-.865a.498.498 0 0 1 .494-.246zm-17.758 4.758c.064.008.128.03.188.064l.865.5c.24.139.322.442.184.682l-.5.867a.5.5 0 0 1-.684.182l-.865-.5a.499.499 0 0 1-.184-.682l.5-.867a.501.501 0 0 1 .496-.246zm22.758 0a.501.501 0 0 1 .496.246l.5.867a.498.498 0 0 1-.184.682l-.865.5a.5.5 0 0 1-.684-.182l-.5-.867a.498.498 0 0 1 .184-.682l.865-.5a.489.489 0 0 1 .188-.064zM37.5 23h1c.277 0 .5.223.5.5v1c0 .277-.223.5-.5.5h-1c-.28 0-.5-.223-.5-.5v-1c0-.28.22-.5.5-.5m-26 1h1c.277 0 .5.223.5.5v1c0 .277-.223.5-.5.5h-1a.499.499 0 0 1-.5-.5v-1c0-.28.223-.5.5-.5m25.14 5.455a.497.497 0 0 1 .189.063l.865.5a.5.5 0 0 1 .184.684l-.5.865a.504.504 0 0 1-.687.183l-.865-.5a.5.5 0 0 1-.184-.684l.5-.865a.498.498 0 0 1 .494-.246zm-22.773.865a.498.498 0 0 1 .494.246l.5.867a.498.498 0 0 1-.184.682l-.865.5a.5.5 0 0 1-.684-.182l-.5-.867a.498.498 0 0 1 .184-.682l.865-.5a.5.5 0 0 1 .189-.064zm18.625 4.258a.5.5 0 0 1 .494.248l.5.865a.5.5 0 0 1-.184.684l-.865.5a.505.505 0 0 1-.687-.184l-.5-.865a.5.5 0 0 1 .184-.684l.865-.5a.5.5 0 0 1 .189-.064zm-14.11.5c.064.008.128.03.188.064l.867.5a.5.5 0 0 1 .182.684l-.5.865a.498.498 0 0 1-.682.184l-.867-.5a.5.5 0 0 1-.182-.684l.5-.865a.5.5 0 0 1 .494-.248zM24.5 37h1c.277 0 .5.223.5.5v1c0 .277-.223.5-.5.5h-1c-.28 0-.5-.223-.5-.5v-1c0-.28.22-.5.5-.5" opacity=".1"/>
  <path d="M24 9A15 15 0 0 0 9 24a15 15 0 0 0 15 15 15 15 0 0 0 15-15A15 15 0 0 0 24 9zm-.5 1h1c.277 0 .5.223.5.5v1c0 .277-.223.5-.5.5h-1c-.28 0-.5-.223-.5-.5v-1c0-.277.22-.5.5-.5zm-5.879 1.563a.509.509 0 0 1 .499.246l.495.865a.498.498 0 0 1-.181.683l-.868.5a.495.495 0 0 1-.681-.183l-.5-.865a.493.493 0 0 1 .181-.679l.868-.505a.486.486 0 0 1 .187-.062zm12.758 0a.486.486 0 0 1 .187.062l.868.505c.239.134.32.439.181.679l-.495.865a.503.503 0 0 1-.686.183l-.868-.5a.502.502 0 0 1-.181-.683l.5-.865a.5.5 0 0 1 .494-.246zM12.621 16.32a.49.49 0 0 1 .188.065l.865.5c.24.135.322.442.183.681l-.5.868a.498.498 0 0 1-.683.181l-.865-.495a.504.504 0 0 1-.184-.686l.505-.868a.49.49 0 0 1 .491-.246zm22.759 0a.5.5 0 0 1 .495.246l.505.868a.509.509 0 0 1-.19.686l-.86.495a.503.503 0 0 1-.687-.181l-.503-.868a.497.497 0 0 1 .19-.681l.86-.5a.472.472 0 0 1 .19-.065zM36.5 22h1c.277 0 .5.22.5.5v1c0 .277-.223.5-.5.5h-1c-.28 0-.5-.223-.5-.5v-1c0-.28.22-.5.5-.5zm-26 1h1c.277 0 .5.22.5.5v1c0 .277-.223.5-.5.5h-1a.499.499 0 0 1-.5-.5v-1c0-.28.223-.5.5-.5zm25.137 5.455a.497.497 0 0 1 .189.063l.865.502a.5.5 0 0 1 .184.681l-.495.865a.506.506 0 0 1-.689.184l-.865-.5a.5.5 0 0 1-.183-.684l.497-.865c.11-.18.303-.27.497-.246zm-22.774.865a.5.5 0 0 1 .494.246l.5.868a.503.503 0 0 1-.183.686l-.865.495a.493.493 0 0 1-.679-.181l-.505-.868a.497.497 0 0 1 .184-.681l.865-.5a.501.501 0 0 1 .189-.065zm18.625 4.258a.498.498 0 0 1 .494.248l.5.865a.506.506 0 0 1-.182.689l-.866.495a.502.502 0 0 1-.684-.184l-.5-.865a.498.498 0 0 1 .184-.686l.866-.497a.49.49 0 0 1 .188-.065zm-14.109.502c.064.01.127.03.187.06l.868.503c.239.138.32.447.181.687l-.495.86a.509.509 0 0 1-.686.19l-.868-.505a.5.5 0 0 1-.181-.685l.5-.86a.495.495 0 0 1 .494-.25zM23.5 36h1c.277 0 .5.22.5.5v1c0 .277-.223.5-.5.5h-1c-.28 0-.5-.223-.5-.5v-1c0-.28.22-.5.5-.5z" fill="#d4d4d4"/>
  <path d="M24 13a11 11 0 0 1 10.163 6.79 11 11 0 0 1-2.385 11.988 11 11 0 0 1-11.988 2.384A11 11 0 0 1 13 24h11" fill="#29639f"/>
</svg>

<svg xmlns="http://www.w3.org/2000/svg" viewBox="0 0 48 48">
 <defs>
  <linearGradient id="linearGradient3764" x1="1" x2="47" gradientUnits="userSpaceOnUse" gradientTransform="matrix(0,-1,1,0,-1.5e-6,47.999998)">
   <stop style="stop-color:#575757;stop-opacity:1"/>
   <stop offset="1" style="stop-color:#616161;stop-opacity:1"/>
  </linearGradient>
 </defs>
 <g>
  <path d="m 36.31 5 c 5.859 4.062 9.688 10.831 9.688 18.5 c 0 12.426 -10.07 22.5 -22.5 22.5 c -7.669 0 -14.438 -3.828 -18.5 -9.688 c 1.037 1.822 2.306 3.499 3.781 4.969 c 4.085 3.712 9.514 5.969 15.469 5.969 c 12.703 0 23 -10.298 23 -23 c 0 -5.954 -2.256 -11.384 -5.969 -15.469 c -1.469 -1.475 -3.147 -2.744 -4.969 -3.781 z m 4.969 3.781 c 3.854 4.113 6.219 9.637 6.219 15.719 c 0 12.703 -10.297 23 -23 23 c -6.081 0 -11.606 -2.364 -15.719 -6.219 c 4.16 4.144 9.883 6.719 16.219 6.719 c 12.703 0 23 -10.298 23 -23 c 0 -6.335 -2.575 -12.06 -6.719 -16.219 z" style="opacity:0.05"/>
  <path d="m 41.28 8.781 c 3.712 4.085 5.969 9.514 5.969 15.469 c 0 12.703 -10.297 23 -23 23 c -5.954 0 -11.384 -2.256 -15.469 -5.969 c 4.113 3.854 9.637 6.219 15.719 6.219 c 12.703 0 23 -10.298 23 -23 c 0 -6.081 -2.364 -11.606 -6.219 -15.719 z" style="opacity:0.1"/>
  <path d="m 31.25 2.375 c 8.615 3.154 14.75 11.417 14.75 21.13 c 0 12.426 -10.07 22.5 -22.5 22.5 c -9.708 0 -17.971 -6.135 -21.12 -14.75 a 23 23 0 0 0 44.875 -7 a 23 23 0 0 0 -16 -21.875 z" style="opacity:0.2"/>
 </g>
 <g>
  <path d="m 24 1 c 12.703 0 23 10.297 23 23 c 0 12.703 -10.297 23 -23 23 -12.703 0 -23 -10.297 -23 -23 0 -12.703 10.297 -23 23 -23 z" style="fill:url(#linearGradient3764);fill-opacity:1"/>
 </g>
 <g>
  <path d="m 40.03 7.531 c 3.712 4.084 5.969 9.514 5.969 15.469 0 12.703 -10.297 23 -23 23 c -5.954 0 -11.384 -2.256 -15.469 -5.969 4.178 4.291 10.01 6.969 16.469 6.969 c 12.703 0 23 -10.298 23 -23 0 -6.462 -2.677 -12.291 -6.969 -16.469 z" style="opacity:0.1"/>
 </g>
 <path d="M 25 10 A 15 15 0 0 0 10 25 15 15 0 0 0 25 40 15 15 0 0 0 40 25 15 15 0 0 0 25 10 m -0.5 1 1 0 c 0.277 0 0.5 0.223 0.5 0.5 l 0 1 c 0 0.277 -0.223 0.5 -0.5 0.5 l -1 0 C 24.22 13 24 12.777 24 12.5 l 0 -1 C 24 11.223 24.22 11 24.5 11 m -5.879 1.563 c 0.193 -0.024 0.39 0.066 0.494 0.246 l 0.5 0.865 c 0.139 0.24 0.058 0.545 -0.182 0.684 l -0.867 0.5 c -0.24 0.139 -0.543 0.056 -0.682 -0.184 l -0.5 -0.865 c -0.139 -0.24 -0.058 -0.545 0.182 -0.684 l 0.867 -0.5 c 0.06 -0.035 0.123 -0.054 0.188 -0.063 z m 12.758 0 c 0.064 0.008 0.128 0.028 0.188 0.063 l 0.867 0.5 c 0.24 0.139 0.32 0.444 0.182 0.684 l -0.5 0.865 c -0.139 0.24 -0.442 0.322 -0.682 0.184 l -0.867 -0.5 c -0.24 -0.139 -0.32 -0.444 -0.182 -0.684 l 0.5 -0.865 c 0.104 -0.18 0.301 -0.27 0.494 -0.246 z m -17.758 4.758 c 0.064 0.008 0.128 0.03 0.188 0.064 l 0.865 0.5 c 0.24 0.139 0.322 0.442 0.184 0.682 l -0.5 0.867 c -0.139 0.24 -0.444 0.32 -0.684 0.182 l -0.865 -0.5 C 12.569 18.977 12.487 18.673 12.625 18.434 l 0.5 -0.867 c 0.104 -0.18 0.303 -0.27 0.496 -0.246 z m 22.758 0 c 0.193 -0.024 0.392 0.066 0.496 0.246 l 0.5 0.867 c 0.139 0.24 0.056 0.543 -0.184 0.682 l -0.865 0.5 c -0.24 0.139 -0.545 0.058 -0.684 -0.182 l -0.5 -0.867 c -0.139 -0.24 -0.056 -0.543 0.184 -0.682 l 0.865 -0.5 c 0.06 -0.035 0.123 -0.056 0.188 -0.064 z M 37.5 23 l 1 0 c 0.277 0 0.5 0.223 0.5 0.5 l 0 1 c 0 0.277 -0.223 0.5 -0.5 0.5 l -1 0 C 37.22 25 37 24.777 37 24.5 l 0 -1 C 37 23.22 37.22 23 37.5 23 m -26 1 1 0 c 0.277 0 0.5 0.223 0.5 0.5 l 0 1 c 0 0.277 -0.223 0.5 -0.5 0.5 l -1 0 C 11.223 26 11 25.777 11 25.5 l 0 -1 C 11 24.22 11.223 24 11.5 24 m 25.14 5.455 c 0.064 0.008 0.129 0.028 0.189 0.063 l 0.865 0.5 c 0.24 0.139 0.322 0.444 0.184 0.684 l -0.5 0.865 C 37.24 31.806 36.931 31.889 36.691 31.75 l -0.865 -0.5 c -0.24 -0.139 -0.322 -0.444 -0.184 -0.684 l 0.5 -0.865 c 0.104 -0.18 0.301 -0.27 0.494 -0.246 z m -22.773 0.865 c 0.193 -0.024 0.39 0.066 0.494 0.246 l 0.5 0.867 c 0.139 0.24 0.056 0.543 -0.184 0.682 l -0.865 0.5 c -0.24 0.139 -0.545 0.058 -0.684 -0.182 l -0.5 -0.867 c -0.139 -0.24 -0.056 -0.543 0.184 -0.682 l 0.865 -0.5 c 0.06 -0.035 0.125 -0.056 0.189 -0.064 z m 18.625 4.258 c 0.193 -0.024 0.39 0.068 0.494 0.248 l 0.5 0.865 c 0.139 0.24 0.056 0.545 -0.184 0.684 l -0.865 0.5 C 32.19 37.01 31.889 36.931 31.75 36.691 l -0.5 -0.865 c -0.139 -0.24 -0.056 -0.545 0.184 -0.684 l 0.865 -0.5 c 0.06 -0.035 0.125 -0.056 0.189 -0.064 z m -14.11 0.5 c 0.064 0.008 0.128 0.03 0.188 0.064 l 0.867 0.5 c 0.24 0.139 0.32 0.444 0.182 0.684 l -0.5 0.865 c -0.139 0.24 -0.442 0.322 -0.682 0.184 l -0.867 -0.5 c -0.24 -0.139 -0.32 -0.444 -0.182 -0.684 l 0.5 -0.865 c 0.104 -0.18 0.301 -0.272 0.494 -0.248 z M 24.5 37 l 1 0 c 0.277 0 0.5 0.223 0.5 0.5 l 0 1 c 0 0.277 -0.223 0.5 -0.5 0.5 l -1 0 C 24.22 39 24 38.777 24 38.5 l 0 -1 C 24 37.22 24.22 37 24.5 37" style="fill:#000;opacity:0.1;fill-opacity:1;stroke:none"/>
 <path d="M 24 9 A 15 15 0 0 0 9 24 A 15 15 0 0 0 24 39 A 15 15 0 0 0 39 24 A 15 15 0 0 0 24 9 z M 23.5 10 L 24.5 10 C 24.777 10 25 10.223 25 10.5 L 25 11.5 C 25 11.777 24.777 12 24.5 12 L 23.5 12 C 23.22 12 23 11.777 23 11.5 L 23 10.5 C 23 10.223 23.22 10 23.5 10 z M 17.621 11.563 C 17.814 11.538 18.01 11.629 18.12 11.809 L 18.615 12.674 C 18.754 12.914 18.673 13.219 18.434 13.357 L 17.566 13.857 C 17.327 13.996 17.02 13.914 16.885 13.674 L 16.385 12.809 C 16.246 12.569 16.327 12.264 16.566 12.13 L 17.434 11.625 C 17.494 11.59 17.557 11.571 17.621 11.563 z M 30.379 11.563 C 30.443 11.571 30.506 11.59 30.566 11.625 L 31.434 12.13 C 31.673 12.264 31.754 12.569 31.615 12.809 L 31.12 13.674 C 30.977 13.914 30.673 13.996 30.434 13.857 L 29.566 13.357 C 29.327 13.219 29.25 12.914 29.385 12.674 L 29.885 11.809 C 29.989 11.629 30.19 11.538 30.379 11.563 z M 12.621 16.32 C 12.686 16.328 12.749 16.35 12.809 16.385 L 13.674 16.885 C 13.914 17.02 13.996 17.327 13.857 17.566 L 13.357 18.434 C 13.219 18.673 12.914 18.754 12.674 18.615 L 11.809 18.12 C 11.569 17.977 11.487 17.673 11.625 17.434 L 12.13 16.566 C 12.229 16.386 12.428 16.296 12.621 16.32 z M 35.38 16.32 C 35.572 16.296 35.771 16.386 35.875 16.566 L 36.38 17.434 C 36.514 17.673 36.431 17.977 36.19 18.12 L 35.33 18.615 C 35.09 18.754 34.781 18.673 34.643 18.434 L 34.14 17.566 C 34 17.327 34.09 17.02 34.33 16.885 L 35.19 16.385 C 35.25 16.35 35.31 16.328 35.38 16.32 z M 36.5 22 L 37.5 22 C 37.777 22 38 22.22 38 22.5 L 38 23.5 C 38 23.777 37.777 24 37.5 24 L 36.5 24 C 36.22 24 36 23.777 36 23.5 L 36 22.5 C 36 22.22 36.22 22 36.5 22 z M 10.5 23 L 11.5 23 C 11.777 23 12 23.22 12 23.5 L 12 24.5 C 12 24.777 11.777 25 11.5 25 L 10.5 25 C 10.223 25 10 24.777 10 24.5 L 10 23.5 C 10 23.22 10.223 23 10.5 23 z M 35.637 28.455 C 35.701 28.463 35.766 28.483 35.826 28.518 L 36.691 29.02 C 36.931 29.16 37.01 29.461 36.875 29.701 L 36.38 30.566 C 36.24 30.806 35.931 30.889 35.691 30.75 L 34.826 30.25 C 34.586 30.11 34.504 29.806 34.643 29.566 L 35.14 28.701 C 35.25 28.521 35.443 28.431 35.637 28.455 z M 12.863 29.32 C 13.06 29.3 13.254 29.386 13.357 29.566 L 13.857 30.434 C 13.996 30.673 13.914 30.977 13.674 31.12 L 12.809 31.615 C 12.569 31.754 12.264 31.673 12.13 31.434 L 11.625 30.566 C 11.487 30.33 11.569 30.02 11.809 29.885 L 12.674 29.385 C 12.734 29.35 12.799 29.328 12.863 29.32 z M 31.488 33.578 C 31.682 33.554 31.879 33.646 31.982 33.826 L 32.482 34.691 C 32.621 34.931 32.539 35.24 32.3 35.38 L 31.434 35.875 C 31.19 36.01 30.889 35.931 30.75 35.691 L 30.25 34.826 C 30.11 34.586 30.19 34.28 30.434 34.14 L 31.3 33.643 C 31.359 33.608 31.424 33.586 31.488 33.578 z M 17.379 34.08 C 17.443 34.09 17.506 34.11 17.566 34.14 L 18.434 34.643 C 18.673 34.781 18.754 35.09 18.615 35.33 L 18.12 36.19 C 17.977 36.431 17.673 36.514 17.434 36.38 L 16.566 35.875 C 16.327 35.737 16.246 35.431 16.385 35.19 L 16.885 34.33 C 16.989 34.15 17.19 34.05 17.379 34.08 z M 23.5 36 L 24.5 36 C 24.777 36 25 36.22 25 36.5 L 25 37.5 C 25 37.777 24.777 38 24.5 38 L 23.5 38 C 23.22 38 23 37.777 23 37.5 L 23 36.5 C 23 36.22 23.22 36 23.5 36 z" style="fill:#d4d4d4;opacity:1;fill-opacity:1;stroke:none"/>
 <path d="m 24 13 a 11 11 0 0 1 10.163 6.79 11 11 0 0 1 -2.385 11.988 11 11 0 0 1 -11.988 2.384 A 11 11 0 0 1 13 24 L 24 24" style="fill:#29639f;opacity:1;fill-opacity:1;stroke:none"/>
</svg>
